X:1
T:’Tis Marvelous and Wonderful
T:’Tis Marvelous and Wonderful
T:Lelia Naylor Morris
T:Lelia Naylor Morris, ca. 1919
T:Public Domain Courtesy of the Cyber Hymnal™
T:Public Domain Courtesy of the Cyber Hymnal™
C:Lelia Naylor Morris
Z:Public Domain
Z:Courtesy of the Cyber Hymnal™
%%score ( 1 2 ) ( 3 4 )
L:1/8
Q:1/4=92
M:6/8
K:Bb
V:1 treble 
V:2 treble 
V:3 bass 
V:4 bass 
V:1
 F | B>BB BDG | F2 D B,2 [CE] | [B,D]2 [B,D] [B,F][A,E][B,D] | [A,C]3- [A,C]2 [EF] | %5
w: 1.~The|Sav- ior has come in His|might- y power, And|spo- ken peace to my|soul; * And|
w: 2.~’Twas|on- ly a fore- taste of|joys di- vine In|Ca- naan wait- ing for|me, * Where|
w: 3.~From|glo- ry to glo- ry He|leads me on, From|grace to grace ev- ery|day; * And|
w: 4.~If|fel- low- ship here with my|Lord can be So|in- ex- press- i- bly|sweet, * Oh,|
 [DB]>[DB][DB] [Fd][Ec][DB] | [EG]2 [DF] [DF]2 [FG] | [FA][FA][FA] [=EB]2 [EG] | [Fc]3 [Fd]3 | %9
w: all of my life from that|ve- ry hour I’ve|yield- ed to His con-|trol, I’ve|
w: sweet- est of hon- ey and|milk and wine Were|drip- ping from ev- ery|tree, Were|
w: bright- er and bright- er the|glo- ry dawns, While|press- ing my home- ward|way, While|
w: what will it be when His|face we see, When|’round the bright throne we|meet? When|
 [Fc]F[FB] [FA]2 [=EG] | [CF]6 ||"^Refrain" [Fd]2 [Fd] [Fd]2 z | [Bd]2 [Bd] [Bd]2 z | %13
w: yield- ed to His con-|trol.|||
w: drip- ping from ev- ery|tree.|Won- der- ful,|won- der- ful,|
w: press- ing my home- ward|way.|||
w: ’round the bright throne we|meet?|||
 [Ae]2 [Ae] [Ae]2 [Ae] | [Bd]2 [Bd] [Bd]2 [Bd] | [Be]3 [Be]3 | [Bd][Bd][Bd] [Bd]2 [Bd] | %17
w: ||||
w: Mar- vel- ous and|won- der- ful, What|He has|done for my soul! The|
w: ||||
w: ||||
 [Fc]3 [=Ec]3 |"^riten." [Fc][Fc][Fd] !fermata![Fe]3 |"^a tempo" ([Fd]3 [Fd])[Ec][DB] | %20
w: |||
w: half has|ne- ver been told;|Oh, * it is|
w: |||
w: |||
 [EG]2 [DF] [DF][DB][DB] | [Ec]2 [Ec] ([Ec][DB])[Ec] | [Fd]2 [Fd] !fermata![Fc]2 [Fc] | %23
w: |||
w: won- der- ful. It is|mar- vel- ous * and|won- der- ful, What|
w: |||
w: |||
 [Fd][Fd][Fd] [Ec][Ec][Ec] | [DB]2 [_AB] !fermata![Ge]2 [Gc] | %25
w: ||
w: Je- sus has done for this|soul of mine! The|
w: ||
w: ||
"^riten." [_Af]2 [Ge] [Bd]<[Bd][=Ac] | [FB]3- [FB]2 |] %27
w: ||
w: half has ne- ver been|told. *|
w: ||
w: ||
V:2
 F | B>BB BDG | F2 D B,2 x | x6 | x6 | x6 | x6 | x6 | x6 | x F x4 | x6 || x6 | x6 | x6 | x6 | x6 | %16
 x6 | x6 | x6 | x6 | x6 | x6 | x6 | x6 | x6 | x6 | x5 |] %27
V:3
 F, | B,>B,B, B,D,G, | F,2 D, B,,2 [A,,F,] | [B,,F,]2 [B,,F,] [D,F,][C,F,][B,,F,] | %4
w: ~|~ ~ ~ ~ ~ ~|~ ~ ~ ~|~ ~ ~ ~ ~|
 [F,,F,]3- [F,,F,]2 F, | [B,,F,]>[B,,F,][B,,F,] [B,,B,][B,,F,][B,,F,] | %6
w: ~ * ~|~ ~ ~ ~ ~ ~|
 [B,,B,]2 [B,,B,] [B,,B,]2 [B,,D] | [C,C][C,C][C,C] [C,G,]2 [B,,G,] | [A,,F,]3 [B,,F,]3 | %9
w: ~ ~ ~ ~|~ ~ ~ ~ ~|~ ~|
 [C,A,][D,A,][B,,D] [C,C]2 [C,B,] | [F,A,]6 || B,4 D,G, | F,2 D, B,,D,G, | F,2 E, (C,E,)G, | %14
w: ~ ~ ~ ~ ~|~|Oh, it is|won- der- ful! It is|mar- vel- lous * and|
 F,2 D, B,,2 F, | G,>G,G, G,A,B, | F,2 F, D,2 F, | A,2 A, B,A,G, | (A,2 B, !fermata!C3) | %19
w: won- der- ful, What|Je- sus has done for this|soul of mine! The|half has ne- ver been|told; * *|
 [B,,B,]2 [B,,B,] [B,,B,]2 z | [B,,B,]2 [B,,B,] [B,,B,]2 z | [F,A,]2 [F,A,] [F,A,]2 [F,A,] | %22
w: Won- der- ful,|||
 B,2 B, !fermata![F,A,]2 [F,A,] | [B,,B,][B,,B,][B,,B,] [F,A,][F,A,][F,A,] | %24
w: ||
 [G,B,]2 [D,B,] !fermata![E,B,]2 [E,B,] | [D,B,]2 [E,B,] [F,F]<[F,F][F,E] | [B,,D]3- [B,,D]2 |] %27
w: |||
V:4
 F, | B,>B,B, B,D,G, | F,2 D, B,,2 x | x6 | x5 F, | x6 | x6 | x6 | x6 | x6 | x6 || x6 | x6 | x6 | %14
 x6 | x6 | x6 | x6 | x6 | x6 | x6 | x6 | B,2 B, x3 | x6 | x6 | x6 | x5 |] %27

